X:3
T:Polska efter Jon Andersson
R:polska L1
H:efter Jon Andersson (1846-1924), L\"anserud, Norra Finnskoga
A:V\"armland
Z:id:hn-L1-3
M:3/4
K:Dm
af|d>d ^c>A cd|e2 f>a g=b|a>f e>d (3^c=Bc|dA FD af|
d>d ^c>A cd|e2 f>a g=b|a>f e>d (3^c=Bc|d4:|
|:a2|fg/a/ (3fga (3fga|_b2 _b2 g2|ef/g/ (3efg (3efg|a2 a2 af|
d>d ^c>A cd|e2 f>a g=b|a>f e>d (3^c=Bc|d4:|
<end>
<start>
